src/icon/brand/forex/icon_forex_xl_black.svg

<svg width="40px" height="40px" viewBox="0 0 40 40" version="1.1" xmlns="http://www.w3.org/2000/svg"><g transform="translate(-58.000000, -1.000000) translate(58.000000, 1.000000)" fill="#0B1F35" stroke="none" stroke-width="1" fill-rule="evenodd"><polygon points="10.8065337 9.23076923 10.7474304 9.23076923 6.15384615 24.6153846 15.3846154 24.6153846"/><path d="M17.9114595,32.2113333 L2.80335135,32.2113333 C2.5547027,32.9146667 0.000108108108,40.0002222 0.000108108108,40.0002222 L20.7092973,40.0002222 C20.7092973,40.0002222 18.1622703,32.9146667 17.9114595,32.2113333"/><path d="M34.1540541,15.1063333 L26.8535135,15.1063333 C26.8513514,12.3896667 26.8491892,9.77188889 26.8448649,7.50188889 L36.3605405,7.50188889 C36.7227027,7.50188889 37.1172973,7.19966667 37.2427027,6.82855556 L39.3172973,0.703 C39.4448649,0.331888889 39.2545946,0.0307777778 38.8924324,0.0307777778 L10.3572973,0.0307777778 L10.3572973,0.104111111 L10.3637838,0.104111111 C14.2924324,0.104111111 15.5702703,3.03855556 16.5637838,5.88522222 C17.0772973,7.35633333 26.4232432,35.593 26.7962162,36.6707778 C26.8416216,36.7985556 26.8556757,30.2041111 26.8567568,22.5774444 L31.6210811,22.5774444 C31.9832432,22.5774444 32.3778378,22.2752222 32.5054054,21.903 L34.58,15.7785556 C34.7064865,15.4074444 34.5140541,15.1063333 34.1540541,15.1063333"/></g></svg>

<svg width="40" height="40" viewBox="0 0 40 40" xmlns="http://www.w3.org/2000/svg"><g fill="#0B1F35" fill-rule="evenodd"><path d="M10.807 9.23h-.06L6.154 24.616h9.23zM17.911 32.211H2.803C2.555 32.915 0 40.001 0 40.001h20.71s-2.548-7.086-2.799-7.79M34.154 15.106h-7.3c-.003-2.716-.005-5.334-.01-7.604h9.517c.362 0 .756-.302.882-.673L39.317.703c.128-.371-.062-.672-.425-.672H10.357v.073h.007c3.928 0 5.206 2.935 6.2 5.781.513 1.471 9.86 29.708 10.232 30.786.046.128.06-6.467.06-14.094h4.765c.362 0 .757-.302.884-.674l2.075-6.124c.126-.372-.066-.673-.426-.673"/></g></svg>
